assets/Selfie/Dark/Flat/selfie_flat_dark.svg

<svg width="32" height="32" viewBox="0 0 32 32" fill="none" xmlns="http://www.w3.org/2000/svg">
<path d="M22.1324 15H16.7047C16.2821 15 15.9051 15.2657 15.763 15.6637L13.737 21.3363C13.5949 21.7343 13.2179 22 12.7953 22H3C2.44772 22 2 22.4477 2 23V29C2 29.5523 2.44772 30 3 30H16C18.5 30 19.5 28 20 26L23.0853 16.3032C23.2906 15.6583 22.8092 15 22.1324 15Z" fill="#F92F60"/>
<path d="M16.75 15H22.25C22.25 14 22.5068 13.3322 23 13.25H23.75C24.3023 13.25 24.75 12.8023 24.75 12.25C24.75 12.1648 24.7393 12.082 24.7193 12.0031C24.7198 12.001 24.72 12 24.72 12L24.7163 11.9915C24.6896 11.8917 24.6479 11.7979 24.5937 11.713L24.5 11.5C24.3826 11.2105 23.9811 11 23 11L23 8H17C16.6 8 15.6667 8.66667 15.25 9V11.4484C15.25 11.9484 15.5 13 16.75 13.5C17 13.6 17 14 16.75 15Z" fill="#573739"/>
<path d="M17 3C17 2.44772 17.4477 2 18 2H23C23.5523 2 24 2.44772 24 3V11C24 11.5523 23.5523 12 23 12H18C17.4477 12 17 11.5523 17 11V3Z" fill="#433B6B"/>
<path d="M17 3H23V11H17V3Z" fill="#00A6ED"/>
<path d="M21.75 5.75C21.75 5.19772 22.1977 4.75 22.75 4.75H24.25C24.8023 4.75 25.25 5.19772 25.25 5.75C25.25 6.30228 24.8023 6.75 24.25 6.75C24.8023 6.75 25.25 7.19772 25.25 7.75C25.25 8.30228 24.8023 8.75 24.25 8.75C24.8023 8.75 25.25 9.19772 25.25 9.75C25.25 10.3023 24.8023 10.75 24.25 10.75H24C24.5523 10.75 25 11.1977 25 11.75C25 12.3023 24.5523 12.75 24 12.75H22.75C22.1977 12.75 21.75 12.3023 21.75 11.75C21.75 11.1977 22.1977 10.75 22.75 10.75C22.1977 10.75 21.75 10.3023 21.75 9.75C21.75 9.19772 22.1977 8.75 22.75 8.75C22.1977 8.75 21.75 8.30228 21.75 7.75C21.75 7.19772 22.1977 6.75 22.75 6.75C22.1977 6.75 21.75 6.30228 21.75 5.75Z" fill="#573739"/>
<path d="M16.9423 7.25C16.0077 7.25 15.25 8.00767 15.25 8.94231C15.25 9.52645 15.7235 10 16.3077 10H18.1C18.8594 10 19.475 9.38439 19.475 8.625C19.475 7.86561 18.8594 7.25 18.1 7.25H16.9423Z" fill="#573739"/>
</svg>

<svg xmlns="http://www.w3.org/2000/svg" width="32" height="32" fill="none"><path fill="#F92F60" d="M22.132 15h-5.427a1 1 0 0 0-.942.664l-2.026 5.672a1 1 0 0 1-.942.664H3a1 1 0 0 0-1 1v6a1 1 0 0 0 1 1h13c2.5 0 3.5-2 4-4l3.085-9.697A1 1 0 0 0 22.132 15Z"/><path fill="#573739" d="M16.75 15h5.5c0-1 .257-1.668.75-1.75h.75a1 1 0 0 0 .97-1.247V12l-.004-.008a.996.996 0 0 0-.122-.279L24.5 11.5c-.117-.29-.519-.5-1.5-.5V8h-6c-.4 0-1.333.667-1.75 1v2.448c0 .5.25 1.552 1.5 2.052.25.1.25.5 0 1.5Z"/><path fill="#433B6B" d="M17 3a1 1 0 0 1 1-1h5a1 1 0 0 1 1 1v8a1 1 0 0 1-1 1h-5a1 1 0 0 1-1-1V3Z"/><path fill="#00A6ED" d="M17 3h6v8h-6V3Z"/><path fill="#573739" d="M21.75 5.75a1 1 0 0 1 1-1h1.5a1 1 0 1 1 0 2 1 1 0 1 1 0 2 1 1 0 1 1 0 2H24a1 1 0 1 1 0 2h-1.25a1 1 0 1 1 0-2 1 1 0 1 1 0-2 1 1 0 1 1 0-2 1 1 0 0 1-1-1ZM16.942 7.25c-.934 0-1.692.758-1.692 1.692 0 .584.473 1.058 1.058 1.058H18.1a1.375 1.375 0 1 0 0-2.75h-1.158Z"/></svg>
